X: 210
T:Dumbarton Castle
M:4/4
L:1/8
F:http://blackrosetheband.googlepages.com/ABCTUNES.ABC May 2009
C:James Scott Skinner
K:A
G|A>E CA,E2-E F/2G/2|A/2B/2c/2d/2 eA cBBc|A>E CA,E2-E F/2G/2|A/2B/2c/2d/2 Be/2d/2 cAA:|
e|a>g fa e2-cA|A/2B/2c/2d/2 eA cBBe|a>g fa e/2<e/2c AF|A/2B/2c/2d/2 eA cAAe|
a>g fa e2-cA|A/2B/2c/2d/2 f/2e/2d/2c/2 B/2A/2G/2A/2 B/2d/2c/2B/2|A>E CA,E2-E F/2G/2|A/2B/2c/2d/2 Be/2g/2 aAA||
T:Variation
E|A/2G/2F/2E/2 D/2C/2B,/2A,/2 E/2A,/2B,/2C/2 D/2E/2F/G/2|A/2B/2c/2d/2 f/2e/2d/2c/2 B/2A/2G/2A/2 B/2d/2c/2B/2|A/2G/2F/2E/2 D/2C/2B,/2A,/2 E/2A,/2 B,/2C/2 D/2E/2F/2G/2|A/2B/2c/2d/2 Be/2d/2 cAA:||
e|a/2g/2a/2g/2 f/2a/2e/2a/2 e/2c/2a/2f/2 e/2c/2A/2F/2|A/2B/2c/2d/2 f/2e/2d/2c/2 B/2A/2G/2A/2 B/2e/2f/2g/2|a/2g/2a/2g/2 f/2a/2e/2a/2 e/2c/2a/2f/2 e/2c/2A/2F/2|A/2B/2c/2d/2 Be/2d/2 cAAe|
a/2A/2a/2g/2 f/2a/2e/2a/2 e/2c/2a/2f/2 e/2c/2A/2F/2|A/2B/2c/2d/2 f/2e/2d/2c/2 B/2A/2G/2A/2 B/2d/2c/2B/2|A/2G/2F/2E/2 D/2C/2B,/2A,/2 E/2A,/2B,/2C/2 D/2E/2F/2G/2|A/2B/2c/2d/2 Be/2g/2 aAA||

